!!!COM: Frescobaldi, Girolamo
!!!CDT: 1583///-1643
!!!ONM: No. 28
!!!OTL: No. 28: Canzon Terza &agrave; 3. Due Canti e Basso
!!!OPR: Canzoni da sonare a una, due, tre et quattro, libro primo
!!!PPP: Venezia
!!!PDT: 1634
!!!URL: http://icking-music-archive.org/ByComposer/Frescobaldi.html
!!!ONB: Andrea Friggi, ed.
**kern	**kern	**kern	**kern
!Basso ad Organo	!Basso	!Canto Secondo	!Canto Primo
*staff4	*staff3	*staff2	*staff1
*Icello	*Icello	*Ivioln	*Ivioln
*clefF4	*clefF4	*clefG2	*clefG2
*k[]	*k[]	*k[]	*k[]
*M3/1	*M3/1	*M3/1	*M3/1
*MM240	*MM240	*MM240	*MM240
=1-	=1-	=1-	=1-
1D	1D	1ff	1dd
1AA	1A	1ee	1dd
1AA	1AA	1ee	1cc#
=2	=2	=2	=2
1.D	1.D	1dd	0dd
.	.	1ff	.
2C/	2C/	.	.
1BB-	1BB-	1gg	1dd
=3	=3	=3	=3
0.AA	0.AA	0aa	0cc#
.	.	1cc#	1ee
=4	=4	=4	=4
0FF	1r	2.ff\	2.a/
.	.	4ff\	4a/
.	1r	2ff\	2aa\
.	.	2ff\	2aa\
1C	1C	1ee	1gg
=5	=5	=5	=5
1.F	2.F\	0.ff	1.ff
.	4F\	.	.
.	2F\	.	.
2F\	2F\	.	2a/
1E	1E	.	2b\
.	.	.	2cc\
=6	=6	=6	=6
0D	0D	1r	2.dd\
.	.	.	4a/
.	.	1r	2dd\
.	.	.	2dd\
1A	1A	1aa	1cc#
=7	=7	=7	=7
1.B-	2.B-\	1.ff	0dd
.	4B-\	.	.
.	2B-\	.	.
2B-\	2B-\	2dd\	.
1A	1A	2ee\	1r
.	.	2ff\	.
=8	=8	=8	=8
0G	0G	2.gg\	1r
.	.	4dd\	.
.	.	2gg\	1r
.	.	2gg\	.
1D	1D	1ff#	1a
=9	=9	=9	=9
1.GG	1.GG	0gg	2.b-\
.	.	.	4b-\
.	.	.	2b-\
2GG/	2G\	.	2b-\
2AA/	2A\	1cc	1a
2BB/	2B\	.	.
=10	=10	=10	=10
0C	2.c\	1r	0.g
.	4G\	.	.
.	2c\	1cc	.
.	2c\	.	.
1G	1B	2dd\	.
.	.	2ee\	.
=11	=11	=11	=11
0D	1.A	2.ff\	1r
.	.	4dd\	.
.	.	2ff\	1r
.	2D\	2ff\	.
1E	2E\	1ee	1cc
.	2F\	.	.
=12	=12	=12	=12
0G	2.G\	0dd	2.b\
.	4D\	.	4b\
.	2G\	.	2b\
.	2G\	.	2b\
1F	1F	1dd	1a
=13	=13	=13	=13
1E	1E	2.ee\	2.g#/
.	.	4g#/	4b\
1D	1D	2a/	2cc\
.	.	2b\	2dd\
1C	1C	2cc\	2ee\
.	.	2a/	2cc\
=14	=14	=14	=14
1GG	1G	2b\	2dd\
.	.	2cc\	2ee\
1D	1D	2dd\	2ff\
.	.	2dd\	2gg\
1AA	1AA	1cc#	1ee
=15	=15	=15	=15
*met(C)	*met(C)	*met(C)	*met(C)
*M4/4	*M4/4	*M4/4	*M4/4
1D	1D	1dd	1dd
=16	=16	=16	=16
*clefC4	*	*	*
2d\	1r	4r	2a/
.	.	4aa\	.
4c#\	.	4ee\	4a/
4d\	.	4ff\	4a/
=17	=17	=17	=17
*clefF4	*	*	*
2G\	2r	4gg\	4b\
.	.	8ff\L	4cc#\
.	.	8ee\J	.
4D\	4r	4.ff\	8dd\L
.	.	.	8a\
4D\	4D\	.	8dd\
.	.	8ff\	8dd\J
=18	=18	=18	=18
4E\	4E\	2ee\	2cc\
4F#\	4F#\	.	.
4G\	4G\	2dd\	2b\
8D\L	8D\L	.	.
8G\J	8G\J	.	.
=19	=19	=19	=19
2F\	4F\	1r	4r
.	8E\L	.	4aa\
.	8D\J	.	.
4C#/	4C#/	.	4ee\
4D\	4D\	.	4ff#\
=20	=20	=20	=20
2GG/	2GG/	4r	4gg\
.	.	4dd\	8ff\L
.	.	.	8ee\J
2D\	4r	4a/	4ff\
.	4D\	4b\	4ff\
=21	=21	=21	=21
4E\	4E\	4cc\	2ee\
4F#\	4F#\	8b/L	.
.	.	8a/J	.
4G\	4G\	8b/L	2dd\
.	.	8g/	.
4GG/	4GG/	8b/	.
.	.	8cc/J	.
=22	=22	=22	=22
4BB/	4BB/	4dd\	1r
4C/	4C/	4ee\	.
4D\	4D\	4ff\	.
8C/L	8C/L	8ee\L	.
8BB/J	8BB/J	8dd\J	.
=23	=23	=23	=23
4AA/	4AA/	4cc\	4r
4DD/	4D\	2aa\	2ff\
4FF/	4F\	.	.
4GG/	4G\	[4gg\	[4ee\
=24	=24	=24	=24
4AA/	4A\	4gg\]	4ee\]
4BB/	4B\	4ff\	4dd\
2C/	4c\	[2ee\	4cc\
.	4C/	.	[4gg\
=25	=25	=25	=25
4E\	4E\	4ee\]	4gg\]
4F\	4F\	2dd\	4ff\
4G\	4G\	.	2ee\
4A\	4A\	4cc#\	.
=26	=26	=26	=26
1D	2D\	2dd\	4r
.	.	.	4dd\
.	2r	2r	4a/
.	.	.	4b\
=27	=27	=27	=27
2A\	1r	1r	4cc\
.	.	.	8b/L
.	.	.	8a/J
4G\	.	.	8b/L
.	.	.	8g/J
4F\	.	.	[4dd\
=28	=28	=28	=28
4E\	4r	1r	4dd\]
4AA/	4A\	.	4cc#\
4D\	4D\	.	2dd\
4E\	4E\	.	.
=29	=29	=29	=29
4F\	4F\	4r	2r
8E\L	8E\L	2dd\	.
8D\J	8D\J	.	.
2AA/	4A\	.	4r
.	4AA/	[4cc\	4a/
=30	=30	=30	=30
4C/	4C/	4cc\]	4e/
4D\	4D\	2b\	4f#/
4E\	4E\	.	8g#/L
.	.	.	8e/J
8F\L	8F\L	4a/	[4a/
8E\J	8E\J	.	.
=31	=31	=31	=31
4D\	4D\	2b\	4a/]
4E\	4E\	.	4g#/
4AA/	4AA/	2cc\	4a/
4A\	4A\	.	[4ee\
=32	=32	=32	=32
4E\	4E\	1r	4ee\]
4F#\	4F#\	.	2dd\
4G\	8G\L	.	.
.	8E\J	.	.
4A\	[4A\	.	[4cc\
=33	=33	=33	=33
2E\	4A\]	2r	4cc\]
.	4G\	.	4b\
4AA/	2A\	4r	2a/
4F#\	.	4a/	.
=34	=34	=34	=34
2G\	1r	2b\	4r
.	.	.	4dd\
2E\	.	4r	2ee\
.	.	4cc\	.
=35	=35	=35	=35
2D\	1r	2dd\	4r
.	.	.	4ff#\
2BB/	.	4r	4.gg#\
.	.	4b\	.
.	.	.	16ff#\LL
.	.	.	16gg#\JJ
=36	=36	=36	=36
2AA/	4r	4.cc#\	2aa\
.	4AA/	.	.
.	.	16b\LL	.
.	.	16cc#\JJ	.
2BB/	2BB/	2dd\	4r
.	.	.	[4dd\
=37	=37	=37	=37
2C/	4r	4r	4dd\]
.	4C/	2ee\	2cc\
[2D\	2D\	.	.
.	.	[4dd\	[4b\
=38	=38	=38	=38
2D\]	4r	4dd\]	4b\]
.	4D\	4cc\	2a/
2E\	4.E\	2b\	.
.	.	.	4g#/
.	16D\LL	.	.
.	16E\JJ	.	.
=39	=39	=39	=39
4.F\	4.F\	2a/	4r
.	.	.	4a/
8E\	8E\	.	.
4D\	4D\	4r	4dd\
4C#/	4C#/	[4ee\	4ee\
=40	=40	=40	=40
2D\	2D\	4ee\]	8ff#\L
.	.	.	8gg\J
.	.	8dd\L	2aa\
.	.	8cc\J	.
2E\	2E\	2b\	.
.	.	.	4gg#\
=41	=41	=41	=41
1AA	1AA	1cc#	1aa
=42	=42	=42	=42
1A	2r	1r	1r
.	2A\	.	.
=43	=43	=43	=43
1G#	2.G#\	1r	1r
.	4G#\	.	.
=44	=44	=44	=44
2A\	2A\	1r	1r
2E\	2E\	.	.
=45	=45	=45	=45
2F\	2F\	2r	1r
4C#/	4C#/	2aa\	.
4D\	4D\	.	.
=46	=46	=46	=46
1E	1E	2.gg#\	1r
.	.	4gg#\	.
=47	=47	=47	=47
1AA	1AA	2aa\	1r
.	.	2ee\	.
=48	=48	=48	=48
2D\	1r	2.ff\	2r
2D\	.	.	2dd\
.	.	8gg\L	.
.	.	8ff\J	.
=49	=49	=49	=49
1A	2r	1ee	2.cc#\
.	2A\	.	.
.	.	.	4cc#\
=50	=50	=50	=50
2B-\	2B-\	1dd	2dd\
2F#\	2F#\	.	2a/
=51	=51	=51	=51
1G	1G	1r	2.b-\
.	.	.	4b-\
=52	=52	=52	=52
1D	1D	2r	2a/
.	.	8r	8r
.	.	8ff\L	8dd\L
.	.	8ff\	8dd\
.	.	8ff\J	8dd\J
=53	=53	=53	=53
2F\	1r	4.ff\	4.cc\
.	.	8ff\	8aa\
4C/	.	8ee\L	8gg\L
.	.	8ff\	8aa\
4D\	.	8dd\	8ff\
.	.	8ee\J	8gg\J
=54	=54	=54	=54
1A	1r	2cc#\	2ee\
.	.	8r	8r
.	.	8ee\L	8cc#\L
.	.	8ee\	8cc#\
.	.	8ff\J	8dd\J
=55	=55	=55	=55
2G\	1r	8gg\L	8ee\L
.	.	8aa\	8ff\
.	.	8ff\	8dd\
.	.	8gg\J	8ee\J
4A\	.	4ee\	4cc#\
4D\	.	4dd\	4dd\
=56	=56	=56	=56
2A\	1r	8r	8r
.	.	8ee\L	8cc#\L
.	.	8ee\	8cc#\
.	.	8ff\J	8dd\J
2G\	.	8gg\L	8ee\L
.	.	8aa\	8ff\
.	.	8ff\	8dd\
.	.	8gg\J	8ee\J
=57	=57	=57	=57
4A\	2r	4ee\	4cc#\
4D\	.	4dd\	4dd\
4r	4r	4r	4r
4AA/	4A\	4cc#\	4ee\
=58	=58	=58	=58
4.D\	8D\L	8dd\L	8ff\L
.	8D\	8dd\	8ff\
.	8D\	8dd\	8ff\
8D\	8D\J	8dd\J	8ff\J
4C/	4C/	4ee\	4gg\
4F\	4F\	4ff\	4aa\
=59	=59	=59	=59
2AA/	4r	4r	4r
.	4A\	4cc#\	4ee\
2D\	8D\L	8dd\L	8ff\L
.	8D\	8dd\	8ff\
.	8D\	8dd\	8ff\
.	8D\J	8dd\J	8ff\J
=60	=60	=60	=60
4C/	4C/	4ee\	4gg\
4F\	4F\	4ff\	4aa\
4BB-/	4BB-/	8r	8r
.	.	8ff\L	8dd\L
4GG/	4GG/	8gg\	8ee\
.	.	8ff\J	8dd\J
=61	=61	=61	=61
4.AA/	4.AA/	8ee\L	8cc#\L
.	.	8ee\	8cc#\
.	.	8ff\	8dd\
8GG/	8GG/	8gg\J	8ee\J
2FF/	2FF/	2aa\	2ff\
=62	=62	=62	=62
4BB-/	4BB-/	8r	8r
.	.	8ff\L	8dd\L
4GG/	4GG/	8gg\	8ee\
.	.	8ff\J	8dd\J
4.AA/	4.AA/	8ee\L	8cc#\L
.	.	8ee\	8cc#\
.	.	8ff\	8dd\
8GG/	8GG/	8gg\J	8ee\J
=63	=63	=63	=63
4FF/	4FF/	4aa\	4ff\
4FF/	8r	8r	8r
.	8FF/	8aa\	8ff\
2C/	2C/	2gg\	2ee\
=64	=64	=64	=64
*M2/2	*M2/2	*M2/2	*M2/2
1F	1.F	1aa	2.ff\
.	.	.	4ff\
2F\	.	2r	2ee\
=65	=65	=65	=65
1B-	1.r	1.r	2dd\
.	.	.	2ee\
2A\	.	.	2ff\
=66	=66	=66	=66
2G\	1.r	1.r	1gg
2A\	.	.	.
2B\	.	.	2ff\
=67	=67	=67	=67
1c	1.r	2gg\	1ee
.	.	2gg\	.
2d\	.	2ff\	2dd\
=68	=68	=68	=68
1c	2c\	2.ee\	1ee
.	2c\	.	.
.	.	4cc\	.
2B\	2B\	2gg\	2r
=69	=69	=69	=69
2.A\	2.A\	1.cc	2r
.	.	.	2ee\
4E\	4E\	.	.
2F\	2F\	.	2aa\
=70	=70	=70	=70
2G\	2G\	1.r	2gg\
2D\	2D\	.	2ff\
2C/	2C/	.	2ee\
=71	=71	=71	=71
2.BB/	2.BB/	2r	2.dd\
.	.	2dd\	.
4GG/	4GG/	.	4ee\
2D\	2D\	2dd\	4ff\
.	.	.	4gg\
=72	=72	=72	=72
1AA	1AA	2.cc\	2aa\
.	.	.	2ee\
.	.	4a/	.
2AA/	2AA/	2cc\	2ff#\
=73	=73	=73	=73
1GG	1GG	2b\	1.gg
.	.	4g/	.
.	.	4a/	.
2G\	2G\	4b\	.
.	.	4cc\	.
=74	=74	=74	=74
1D	1D	2dd\	1.r
.	.	2a/	.
2F\	2F\	2dd\	.
=75	=75	=75	=75
1.E	1.E	2cc#\	2r
.	.	2b\	2gg\
.	.	2cc#\	2gg\
=76	=76	=76	=76
1.D	1D	1dd	2.ff\
.	.	.	4dd\
.	2D\	2cc\	2ff\
=77	=77	=77	=77
1.C	2r	2r	1.ee
.	4C/	2cc\	.
.	4D\	.	.
.	4E\	2cc\	.
.	4F\	.	.
=78	=78	=78	=78
1GG	2G\	2b\	1.r
.	2GG/	2gg\	.
2BB/	2BB/	2gg\	.
=79	=79	=79	=79
1.D	1.D	2ff\	2r
.	.	2.dd\	2dd\
.	.	.	2dd\
.	.	4ff\	.
=80	=80	=80	=80
1AA	1AA	1.ee	2.cc\
.	.	.	4a/
2A\	2A\	.	2cc\
=81	=81	=81	=81
2G\	2G\	2r	2b\
2E\	2E\	1g	[1ee
2G\	2G\	.	.
=82	=82	=82	=82
1.F	1.F	1a	2ee\]
.	.	.	[1dd
.	.	2b\	.
=83	=83	=83	=83
1E	1E	2g/	2dd\]
.	.	2gg\	[1cc
2E\	2E\	2ee\	.
=84	=84	=84	=84
1.D	1.D	2ff\	2cc\]
.	.	2dd\	1b
.	.	2ff\	.
=85	=85	=85	=85
1C	2r	1ee	1.cc
.	2C/	.	.
2C/	2C/	2ee\	.
=86	=86	=86	=86
2BB/	2BB/	2dd\	1gg
2AA/	2AA/	2cc\	.
2GG/	2GG/	2b\	2gg\
=87	=87	=87	=87
1D	1D	1a	2ff\
.	.	.	2ee\
2D\	2D\	2b\	2dd\
=88	=88	=88	=88
1C	2C/	2cc\	1ee
.	2BB/	2g/	.
2AA/	2AA/	2a/	2ff#\
=89	=89	=89	=89
1GG	2GG/	2.b\	1gg
.	2FF/	.	.
.	.	4b\	.
2E\	2EE/	2cc#\	2gg\
=90	=90	=90	=90
2D\	2DD/	1dd	2ff\
1AA	1AA	.	1ee
.	.	2cc#\	.
=91	=91	=91	=91
0.D	0.D	0.dd	0.ff#
==	==	==	==
*-	*-	*-	*-
!!!ENC: Craig Stuart Sapp
!!!END: 2004/12/14/
